X: 41
T: the High Reel
R: reel
Z: 2012 John Chambers <jc@trillian.mit.edu>
B: "100 Essential Irish Session Tunes" 1995 Dave Mallinson, ed.
M: 4/4
L: 1/8
K: A
|:\
"A"a2fa ecAB | ((3cBA) eA fAeA | a2fa ecAc | "G"Bcdc B=GGA |
"A"a2fa ecAB | cdef "G"=g2fg | "D"af=ge fdec | "G"Bcdc B=GG2 :|
|:\
"A"((3cBA) eA fAeA | ((3cBA) af ecAB | ((3cBA) eA fAec | "G"Bcdc B=GB=c |
"A"((3cBA) eA fAed | cdef "G"=g2fg | "D"af=ge fdec | "G"Bcdc B=GG2 :|

%%sep 2 1 500
%%sep 1 1 500

